svg/300/outlined/task_alt.svg

<svg xmlns="http://www.w3.org/2000/svg" width="48" height="48" viewBox="0 -960 960 960"><path d="M480.067-100.001q-80.067 0-149.435-29.112-69.368-29.112-120.874-80.595-51.506-51.484-80.631-120.821-29.126-69.338-29.126-149.404 0-79.451 29.118-148.82 29.117-69.368 80.609-120.874 51.492-51.506 120.842-80.939 69.35-29.433 149.43-29.433 70.512 0 131.986 22.654 61.475 22.654 110.782 62.346L690.538-742q-43.231-35-96.375-53.807Q541.018-814.615 480-814.615q-141.538 0-238.077 96.538Q145.385-621.538 145.385-480t96.538 238.077Q338.462-145.385 480-145.385t238.077-96.538Q814.615-338.462 814.615-480q0-30-4.692-58.228-4.693-28.228-13.693-55.003l34.461-34.845q14.461 34.307 21.885 71.386 7.423 37.078 7.423 76.69 0 80.08-29.42 149.43-29.42 69.35-80.903 120.842-51.483 51.492-120.82 80.609-69.338 29.118-148.789 29.118ZM421-311.463 268.693-464.385l33.846-34.23L421-380.153l404.769-404.769 34.845 33.846L421-311.463Z"/></svg>

<svg xmlns="http://www.w3.org/2000/svg" width="48" height="48" viewBox="0 -960 960 960"><path d="M480.07-100q-80.07 0-149.44-29.11-69.37-29.12-120.87-80.6-51.51-51.48-80.63-120.82Q100-399.87 100-479.93q0-79.45 29.12-148.82 29.12-69.37 80.61-120.88 51.49-51.5 120.84-80.94Q399.92-860 480-860q70.51 0 131.99 22.66 61.47 22.65 110.78 62.34l-32.23 33q-43.23-35-96.38-53.81-53.14-18.8-114.16-18.8-141.54 0-238.08 96.53-96.53 96.54-96.53 238.08 0 141.54 96.53 238.08 96.54 96.53 238.08 96.53 141.54 0 238.08-96.53 96.53-96.54 96.53-238.08 0-30-4.69-58.23-4.69-28.23-13.69-55l34.46-34.85q14.46 34.31 21.89 71.39Q860-519.61 860-480q0 80.08-29.42 149.43-29.42 69.35-80.9 120.84-51.49 51.49-120.82 80.61Q559.52-100 480.07-100ZM421-311.46 268.69-464.38l33.85-34.23L421-380.15l404.77-404.77 34.84 33.84L421-311.46Z"/></svg>
